!!!OTL: ACH SCHIFFER, LIEBER SCHIFFER, STOSS' NOCH NICHT AB
!!!ARE: Europa, Mitteleuropa, Deutschland, Niederrhein
!!!SCT: Z0102
!!!YEM: Copyright 1995, estate of Helmut Schaffrath.
**kern
*ICvox
*Ivox
*M2/4
*k[b-e-]
*B-:
{8b-
=1
8a
8f
8b-
8cc
=2
4dd
8cc}
{8dd
=3
8ee-
8dd
8cc
8b-
=4
8a
8g
8f}
{8b-
=5
8a
8f
8b-
8cc
=6
4dd
8cc}
{8dd
=7
8ee-
8dd
8cc
16dd
16cc
=8
4b-
8r}
{8dd
=9
8dd
8dd
8dd
8cc
=10
4cc
8cc}
{8een
=11
8ff
8ee-
8ff
8gg
=12
8cc
8cc
8cc}
{8b-
=13
8a
8f
8b-
8cc
=14
4dd
8cc}
{8dd
=15
8ee-
8dd
8cc
16dd
16cc
=16
4b-
8r}
==
!!!AGN: Sagen - Lied, Romanze
!!!ONB: ESAC (Essen Associative Code) Database: ZUCCAL
!!!AMT: simple duple
!!!AIN: vox
!!!EED: Helmut Schaffrath
!!!EEV: 1.0
*-
